assets/backend/images/arrow_icon10.svg

<svg width="18" height="18" viewBox="0 0 18 18" fill="none" xmlns="http://www.w3.org/2000/svg">
<path d="M10.5452 10.5448C10.6856 10.4044 10.9138 10.4044 11.0542 10.5448L13.32 12.8106V10.7996C13.32 10.6009 13.4813 10.4396 13.68 10.4396C13.8788 10.4396 14.04 10.6009 14.04 10.7996V13.6796C14.04 13.7264 14.0307 13.7732 14.012 13.8172C13.976 13.905 13.9054 13.9756 13.8168 14.0123C13.7736 14.0296 13.7268 14.0396 13.68 14.0396H10.8C10.6013 14.0396 10.44 13.8784 10.44 13.6796C10.44 13.4809 10.6013 13.3196 10.8 13.3196H12.811L10.5459 11.0545C10.4048 10.9134 10.4048 10.6859 10.5452 10.5448Z" fill="#2F2F2F"/>
<path d="M4.18254 3.98732C4.22646 3.97004 4.27326 3.95996 4.32006 3.95996H7.20006C7.39878 3.95996 7.56006 4.12124 7.56006 4.31996C7.56006 4.51868 7.39878 4.67996 7.20006 4.67996H5.1891L7.45422 6.94508C7.59462 7.08548 7.59462 7.31372 7.45422 7.45412C7.38438 7.52468 7.29222 7.55996 7.20006 7.55996C7.1079 7.55996 7.01574 7.52468 6.94518 7.45484L4.68006 5.189V7.19996C4.68006 7.39868 4.51878 7.55996 4.32006 7.55996C4.12134 7.55996 3.96006 7.39868 3.96006 7.19996V4.31996C3.96006 4.27316 3.96942 4.22636 3.98814 4.18244C4.02414 4.0946 4.0947 4.02404 4.18254 3.98732Z" fill="#2F2F2F"/>
<path d="M3.59995 1.7998H14.4C15.3921 1.7998 16.2 2.60692 16.2 3.5998V14.3998C16.2 15.3927 15.3921 16.1998 14.4 16.1998H3.59995C2.60779 16.1998 1.79995 15.3927 1.79995 14.3998V3.5998C1.79995 2.60692 2.60779 1.7998 3.59995 1.7998ZM2.51995 14.3998C2.51995 14.9952 3.00451 15.4798 3.59995 15.4798H14.4C14.9954 15.4798 15.48 14.9952 15.48 14.3998V3.5998C15.48 3.00436 14.9954 2.5198 14.4 2.5198H3.59995C3.00451 2.5198 2.51995 3.00436 2.51995 3.5998V14.3998Z" fill="#2F2F2F"/>
</svg>

<svg version="1.2" xmlns="http://www.w3.org/2000/svg" viewBox="0 0 18 18" width="18" height="18">
	<title>arrow_icon10</title>
	<style>
		.s0 { fill: #4caf50 } 
	</style>
	<path class="s0" d="m10.5 10.5c0.2-0.1 0.4-0.1 0.6 0l2.2 2.3v-2c0-0.2 0.2-0.4 0.4-0.4 0.2 0 0.3 0.2 0.3 0.4v2.9q0 0.1 0 0.1 0 0.2-0.2 0.2 0 0-0.1 0h-2.9c-0.2 0-0.4-0.1-0.4-0.3 0-0.2 0.2-0.4 0.4-0.4h2l-2.3-2.2c-0.1-0.2-0.1-0.4 0-0.6z"/>
	<path class="s0" d="m4.2 4q0 0 0.1 0h2.9c0.2 0 0.4 0.1 0.4 0.3 0 0.2-0.2 0.4-0.4 0.4h-2l2.3 2.2c0.1 0.2 0.1 0.4 0 0.6q-0.2 0.1-0.3 0.1-0.1 0-0.3-0.1l-2.2-2.3v2c0 0.2-0.2 0.4-0.4 0.4-0.2 0-0.3-0.2-0.3-0.4v-2.9q0-0.1 0-0.1 0-0.2 0.2-0.2z"/>
	<path class="s0" d="m3.6 1.8h10.8c1 0 1.8 0.8 1.8 1.8v10.8c0 1-0.8 1.8-1.8 1.8h-10.8c-1 0-1.8-0.8-1.8-1.8v-10.8c0-1 0.8-1.8 1.8-1.8zm-1.1 12.6c0 0.6 0.5 1.1 1.1 1.1h10.8c0.6 0 1.1-0.5 1.1-1.1v-10.8c0-0.6-0.5-1.1-1.1-1.1h-10.8c-0.6 0-1.1 0.5-1.1 1.1z"/>
</svg>
